source/images/pictures/ice-cream.svg

<svg width="32" height="32" viewBox="0 0 32 32" fill="none" xmlns="http://www.w3.org/2000/svg">
<path d="M16 0C14.042 0.00226696 12.1526 0.721694 10.689 2.02231C9.22536 3.32294 8.28885 5.11465 8.05647 7.05882H8V22.9459H24V7.05882H23.9435C23.7111 5.11465 22.7746 3.32294 21.311 2.02231C19.8474 0.721694 17.958 0.00226696 16 0ZM22.1176 21.0635H9.88235V12.3859C10.0569 12.5964 10.2801 12.7612 10.5326 12.8662C10.7851 12.9711 11.0594 13.013 11.3318 12.9882C12.5459 12.9882 13.3365 12.3106 13.3365 11.4541V10.6353C13.3242 10.5223 13.3359 10.408 13.3708 10.2998C13.4057 10.1917 13.4629 10.0921 13.5388 10.0075C13.6147 9.92291 13.7076 9.85527 13.8114 9.80897C13.9152 9.76266 14.0275 9.73873 14.1412 9.73873C14.2548 9.73873 14.3672 9.76266 14.471 9.80897C14.5748 9.85527 14.6676 9.92291 14.7435 10.0075C14.8195 10.0921 14.8767 10.1917 14.9116 10.2998C14.9464 10.408 14.9581 10.5223 14.9459 10.6353V13.7318C14.949 13.9809 15.0049 14.2266 15.1101 14.4525C15.2152 14.6784 15.3671 14.8794 15.5557 15.0422C15.7443 15.205 15.9654 15.326 16.2042 15.397C16.443 15.468 16.6942 15.4875 16.9412 15.4541C17.1822 15.4885 17.4278 15.4721 17.6622 15.4062C17.8966 15.3402 18.1146 15.2261 18.3024 15.0711C18.4902 14.9161 18.6436 14.7236 18.7528 14.5059C18.8619 14.2883 18.9245 14.0503 18.9365 13.8071V11.7271C18.9213 11.5516 18.9428 11.375 18.9996 11.2083C19.0563 11.0417 19.1471 10.8886 19.2661 10.7589C19.3851 10.6291 19.5298 10.5255 19.691 10.4547C19.8521 10.3838 20.0263 10.3472 20.2024 10.3472C20.3784 10.3472 20.5526 10.3838 20.7137 10.4547C20.8749 10.5255 21.0196 10.6291 21.1386 10.7589C21.2576 10.8886 21.3484 11.0417 21.4052 11.2083C21.4619 11.375 21.4834 11.5516 21.4682 11.7271C21.4651 11.7552 21.4651 11.7836 21.4682 11.8118C21.492 11.994 21.5626 12.1669 21.6731 12.3137C21.7836 12.4605 21.9303 12.5762 22.0988 12.6494V21.12L22.1176 21.0635Z" fill="#2D3440"/>
<path d="M14.5882 30.5882C14.5882 30.9627 14.737 31.3217 15.0017 31.5865C15.2665 31.8513 15.6256 32 16 32C16.3744 32 16.7335 31.8513 16.9983 31.5865C17.263 31.3217 17.4118 30.9627 17.4118 30.5882V23.8871H14.5882V30.5882Z" fill="#2D3440"/>
</svg>

<svg width="32" height="32" fill="none" xmlns="http://www.w3.org/2000/svg"><path d="M16 0a8.01 8.01 0 0 0-7.944 7.059H8v15.887h16V7.059h-.056A8.01 8.01 0 0 0 16 0Zm6.118 21.064H9.882v-8.678a1.685 1.685 0 0 0 1.45.602c1.214 0 2.004-.677 2.004-1.534v-.819a.808.808 0 0 1 1.407-.627.81.81 0 0 1 .203.627v3.097a1.76 1.76 0 0 0 1.995 1.722 1.75 1.75 0 0 0 1.995-1.647v-2.08a1.269 1.269 0 0 1 1.778-1.272 1.268 1.268 0 0 1 .754 1.272.387.387 0 0 0 0 .085 1.064 1.064 0 0 0 .63.837v8.471l.02-.056ZM14.588 30.588a1.412 1.412 0 0 0 2.824 0v-6.7h-2.824v6.7Z" fill="#2D3440"/></svg>
